X:11104
T:Money Musk. WM.018
M:4/4
L:1/8
Q:180
S:Wm.Mittell's MS,New Romney,Kent,1799
R:Strathspey
O:England
A:Kent
Z:vmp.Chris Partington
K:G
d|d>GB>G d>Gc>e|d>GB>G A>Bc>e|d>GB>G B>dd>g|e>cA>d B>GG:|!
|:e/-f/|g>dB>g d>gB>f|g>dc>g f>aA.f|g>de>g f>gd>g|e>cA.d B>GG:|]
